X:22
T:MAID BEHIND THE BAR
R:reel
M:4/4
L:1/8
K:Dmaj
K: Dmaj
|:FAAB AFED|FAAB A2de|fBBA Bcde|fdef edBA|
FAAB AFED|FAAB A2de|fBBA BcdB|AFEF D3A:|
|:faag fdde|(3fed ad fddf|gfga beef|gebe geea|
fgaf bfaf|defd e2 de|fBBA BcdB|AFEF D3g:|
